!!!COM: Beethoven, Ludwig van
!!!CDT: 1770///-1827///
!!!ODT: 1798///-1800///
!!!OTL: String Quartet No. 4 in C Minor, Op. 18, No. 4
!!!OPS: Op. 18
!!!ONM: No. 4
!!!OMV: Mvmt. 3
!!!OMD: Menuetto
!!!PDT: 1801///
!!!PPP: Vienna
!!!PPR: C. Haslinger qm Tobias
!!!ODE: Dem F&uuml;rsten von Lobkowitz gewidmet
!!!MPD: 1798///-1800///
**kern	**dynam	**kern	**dynam	**kern	**dynam	**kern	**dynam
*staff4	*staff4	*staff3	*staff3	*staff2	*staff2	*staff1	*staff1
*Icello	*Icello	*Iviola	*Iviola	*Ivioln	*Ivioln	*Ivioln	*Ivioln
*>[A,A,B,B1,B,B2,C,C,D,A,B,B2]	*>[A,A,B,B1,B,B2,C,C,D,A,B,B2]	*>[A,A,B,B1,B,B2,C,C,D,A,B,B2]	*>[A,A,B,B1,B,B2,C,C,D,A,B,B2]	*>[A,A,B,B1,B,B2,C,C,D,A,B,B2]	*>[A,A,B,B1,B,B2,C,C,D,A,B,B2]	*>[A,A,B,B1,B,B2,C,C,D,A,B,B2]	*>[A,A,B,B1,B,B2,C,C,D,A,B,B2]
*>norep[A,B,B2,C,D,A,B,B2]	*>norep[A,B,B2,C,D,A,B,B2]	*>norep[A,B,B2,C,D,A,B,B2]	*>norep[A,B,B2,C,D,A,B,B2]	*>norep[A,B,B2,C,D,A,B,B2]	*>norep[A,B,B2,C,D,A,B,B2]	*>norep[A,B,B2,C,D,A,B,B2]	*>norep[A,B,B2,C,D,A,B,B2]
*>A	*>A	*>A	*>A	*>A	*>A	*>A	*>A
*clefF4	*clefF4	*clefC3	*clefC3	*clefG2	*clefG2	*clefG2	*clefG2
*k[b-e-a-]	*k[b-e-a-]	*k[b-e-a-]	*k[b-e-a-]	*k[b-e-a-]	*k[b-e-a-]	*k[b-e-a-]	*k[b-e-a-]
*c:	*c:	*c:	*c:	*c:	*c:	*c:	*c:
*M3/4	*M3/4	*M3/4	*M3/4	*M3/4	*M3/4	*M3/4	*M3/4
*MM120	*MM120	*MM120	*MM120	*MM120	*MM120	*MM120	*MM120
4r	.	4r	.	4r	.	8.G/L	.
.	.	.	.	.	.	16c/Jk	.
=1	=1	=1	=1	=1	=1	=1	=1
4CC/	.	2G/	.	2c/	.	2e-/	.
4C/	.	.	.	.	.	.	.
4BB-/	.	4B-/	.	4d/	.	4f/	.
=2	=2	=2	=2	=2	=2	=2	=2
4E-\	.	2B-/	.	2e-/	.	2g/	.
4EE-/	.	.	.	.	.	.	.
4C/	.	4A-/	.	4e-/	.	4a-/	.
=3	=3	=3	=3	=3	=3	=3	=3
4GG/	.	4G/	.	2e-/	.	2b-\	.
4G\	.	4g\	.	.	.	.	.
4c\	.	4an\	.	[4g-/	.	[4ee-\	.
=4	=4	=4	=4	=4	=4	=4	=4
4An\	.	4cc\	.	4g-/]	.	4ee-\]	.
4B-\	.	4b-\	.	4f/	.	4dd\	.
4r	.	4r	.	4r	.	8.f/L	.
.	.	.	.	.	.	16a-/Jk	.
=5	=5	=5	=5	=5	=5	=5	=5
4FF/	.	2A-/	.	2c/	.	2cc\	.
4F\	.	.	.	.	.	.	.
4G\	.	4B-/	.	4en/	.	4een\	.
=6	=6	=6	=6	=6	=6	=6	=6
4A-\	.	4c\	.	2f/	.	2ff\	.
4AA-/	.	4C/	.	.	.	.	.
4F\	.	4d\	.	[4cc\	.	[4aa-\	.
=7	=7	=7	=7	=7	=7	=7	=7
4GG/	.	4e-\	.	4cc\]	.	4aa-\]	.
4G\	.	4e-\	.	4cc\	.	4gg\	.
4G\	.	4d\	.	4f/	.	4bn\	.
=8	=8	=8	=8	=8	=8	=8	=8
4C/	.	4c\	.	4e-/	.	4cc\	.
4r	.	4r	.	4r	.	4r	.
=:|!|:	=:|!|:	=:|!|:	=:|!|:	=:|!|:	=:|!|:	=:|!|:	=:|!|:
*>B	*>B	*>B	*>B	*>B	*>B	*>B	*>B
4r	.	4r	.	8.G/L	f	4r	.
.	.	.	.	16c/Jk	.	.	.
=9	=9	=9	=9	=9	=9	=9	=9
4C/	f	2c\	f	2en/	.	2.r	.
4c\	.	.	.	.	.	.	.
4c\	.	4d\	.	4f/	.	.	.
=10	=10	=10	=10	=10	=10	=10	=10
4c\	.	4d#\	.	4f#/	.	2.r	.
4c\	.	4en\	.	4g/	.	.	.
4c\	.	4f\	.	4a-/	.	.	.
=11	=11	=11	=11	=11	=11	=11	=11
4c\	.	4f#\	.	4an/	.	2.r	.
4c\	.	4g\	.	4b-\	.	.	.
4c\	.	4a-\	.	4cc\	.	.	.
=12	=12	=12	=12	=12	=12	=12	=12
4c\	.	2b-\	.	2dd-\	.	2.een\	.
4c\	.	.	.	.	.	.	.
4c\	.	8a-\L	.	8cc\L	.	.	.
.	.	8g\J	.	8b-\J	.	.	.
=13	=13	=13	=13	=13	=13	=13	=13
4F\	.	2f\	.	2a-/	.	2ff\	.
4c\	.	.	.	.	.	.	.
4C/	.	4en\	.	4b-\	.	4gg\	.
=14	=14	=14	=14	=14	=14	=14	=14
4F\	.	2f\	.	2a-/	.	2ff\	.
4c\	.	.	.	.	.	.	.
4C/	.	4en\	.	4b-\	.	4gg\	.
=15	=15	=15	=15	=15	=15	=15	=15
4F\	.	2f\	.	2a-/	.	2ff\	.
4c\	.	.	.	.	.	.	.
4C/	.	4en\	.	4b-\	.	4gg\	.
=16	=16	=16	=16	=16	=16	=16	=16
4F\	.	4f\	.	4a-/	.	4ff\	.
4r	.	4r	.	4r	.	4r	.
4r	.	4r	.	8.A-/L	p	8.a-\L	p
.	.	.	.	16d-/Jk	.	16dd-\Jk	.
=17	=17	=17	=17	=17	=17	=17	=17
4D-\	p	2D-/	<	2f/	<	2ff\	<
4d-\	<	.	.	.	.	.	.
4d-\	.	4E-/	.	4g-/	<	4gg-\	<
=18	=18	=18	=18	=18	=18	=18	=18
4d-\	.	4En/	.	4g/	.	4gg\	.
4d-\	.	4F/	.	4a-/	.	4aa-\	.
4d-\	.	4F#/	.	4an/	.	4aan\	.
=19	=19	=19	=19	=19	=19	=19	=19
4d-\	.	4G/	.	4b-\	.	4bb-\	.
4d-\	.	4A-/	.	4bn\	.	4bbn\	.
4d-\	.	4An/	.	4cc\	.	4ccc\	.
=20	=20	=20	=20	=20	=20	=20	=20
4d-\	.	4B-/	.	4dd-\	.	4ddd-\	.
4d-\	.	8c/L	.	8ee-\L	.	8eee-\L	.
.	.	8B-/	.	8dd-\	.	8ddd-\	.
4d-\	.	8A-/	.	8cc\	.	8ccc\	.
.	.	8G-/J	.	8b-\J	.	8bb-\J	.
=21	=21	=21	=21	=21	=21	=21	=21
4d-\	.	4F/	.	4a-/	.	2aa-\	.
[2D-\	.	4d-\	.	4f/	.	.	.
.	.	4A-/	.	4cc\	.	4gg-\	.
=22	=22	=22	=22	=22	=22	=22	=22
4D-\]	.	4d-\	.	4a-/	.	2ff\	.
[2D-\	.	4a-\	.	4dd-\	.	.	.
.	.	4A-/	.	4cc\	.	4gg-\	.
=23	=23	=23	=23	=23	=23	=23	=23
4D-\]	.	4d-\	.	4a-/	.	2ff\	.
[2D-\	.	4a-\	.	4dd-\	.	.	.
.	.	4A-/	.	4cc\	.	4gg-\	.
=24	=24	=24	=24	=24	=24	=24	=24
4D-\]	.	4d-\	.	4a-/	.	[2.ff\	.
4C/	.	4c\	.	4a-/	.	.	.
4BBn/	.	4Bn/	.	[4dd\	.	.	.
=25	=25	=25	=25	=25	=25	=25	=25
2C/	.	2c\	.	4dd\]	.	2.ff\]	.
.	.	.	.	4g/	.	.	.
4BB-/	.	4B-/	.	[4cc\	.	.	.
=26	=26	=26	=26	=26	=26	=26	=26
4AA-/	.	4A-/	.	4cc\]	.	2.ee-\	.
4GG/	.	4G/	.	4cc\	.	.	.
4FF#/	.	4F#/	.	4cc\	.	.	.
=27	=27	=27	=27	=27	=27	=27	=27
[2.GG/	.	2G/	.	4cc\	.	2dd\	.
.	.	.	.	2bn\	.	.	.
.	.	4f\	.	.	.	[4aa-\	.
=28	=28	=28	=28	=28	=28	=28	=28
2.GG/_	.	2e-\	.	2cc\	.	4aa-\]	.
.	.	.	.	.	.	4gg\	.
.	.	4c\	.	4f#/	.	[4ee-\	.
=29	=29	=29	=29	=29	=29	=29	=29
2.GG/_	>	2Bn/	>	2g/	.	4ee-\]	>
.	.	.	.	.	.	4dd\	.
.	.	4f\	.	4bn\	>	[4aa-\	.
=30	=30	=30	=30	=30	=30	=30	=30
2.GG/_	.	2e-\	.	2cc\	.	4aa-\]	.
.	.	.	.	.	.	4gg\	.
.	.	4f#\	.	[4cc\	.	[4ee-\	.
=31	=31	=31	=31	=31	=31	=31	=31
4GG/]	.	2g\	.	4cc\]	.	4ee-\]	.
4G\	.	.	.	4bn\	.	4dd\	.
4G\	.	4f#\	.	[4cc\	.	[4ee-\	.
=32	=32	=32	=32	=32	=32	=32	=32
4G\	.	4g\	.	4cc\]	.	4ee-\]	.
4r	.	4r	.	4bn\	.	4dd\	.
4r	.	4r	.	4r	.	8.G/L	.
.	.	.	.	.	.	16c/Jk	.
=33	=33	=33	=33	=33	=33	=33	=33
4CC/	.	2G/	.	2c/	.	2e-/	.
4C/	.	.	.	.	.	.	.
4BB-/	.	4B-/	.	4d/	.	4f/	.
=34	=34	=34	=34	=34	=34	=34	=34
4E-\	.	2B-/	.	2e-/	.	2g/	.
4EE-/	.	.	.	.	.	.	.
4E-\	.	4A-/	.	4e-/	.	4a-/	.
=35	=35	=35	=35	=35	=35	=35	=35
4GG/	.	4G/	.	2e-/	.	2b-\	.
4G\	.	4g\	.	.	.	.	.
4c\	.	4an\	.	[4g-/	.	[4ee-\	.
=36	=36	=36	=36	=36	=36	=36	=36
4An\	.	4cc\	.	4g-/]	.	4ee-\]	.
4B-\	.	4b-\	.	4f/	.	4dd\	.
4en\	.	4G/	.	[4b-\	.	4dd-\	.
=37	=37	=37	=37	=37	=37	=37	=37
4g\	.	4En/	.	4b-\]	.	2cc\	.
4f\	.	4F/	.	4an/	.	.	.
4D-\	.	4f\	.	4a-/	.	[4ff\	.
=38	=38	=38	=38	=38	=38	=38	=38
4BBn/	.	4a-\	.	4dd\	.	4ff\]	.
4C/	.	4g\	.	4cc\	.	4een\	.
4AA-/	.	4F#/	.	[4cc\	.	4ee-\	.
=39	=39	=39	=39	=39	=39	=39	=39
4FF#/	.	4An/	.	4cc\]	.	2dd\	.
4GG/	.	4G/	.	4bn\	.	.	.
4F\	.	4d\	.	4bn\	.	[4aa-\	.
=40	=40	=40	=40	=40	=40	=40	=40
4D\	<	4Bn/	<	4ff\	<	4aa-\]	<
4E-\	<	4c\	.	4ee-\	<	4gg\	<
4AAn/	.	4c\	.	4ee-\	.	4ff#\	.
=41	=41	=41	=41	=41	=41	=41	=41
4BBn/	.	4a-\	.	4dd\	.	4ff\	.
4C/	.	4g\	.	4cc\	.	4een\	.
4AA-/	.	[4f#\	.	[4c/	.	[4ee-\	.
=42	=42	=42	=42	=42	=42	=42	=42
4FF#/	.	4f#\]	.	8c/L]	.	8ee-\L]	.
.	.	.	.	8d/J	.	8dd\J	.
4GG/	.	4g\	.	4e-/	.	4cc\	.
4GG/	.	4d\	.	4f/	.	4bn\	.
=43	=43	=43	=43	=43	=43	=43	=43
4CC/	.	4c\	.	4e-/	.	4cc\	.
4G\	.	4r	.	4r	.	4r	.
4G\	.	[4e-\	.	[4g/	.	4r	.
=44	=44	=44	=44	=44	=44	=44	=44
4G\	.	4e-\]	.	4g/]	.	2.r	.
4G\	.	4d\	.	4f/	.	.	.
4G\	.	4Bn/	.	4d/	.	.	.
=45	=45	=45	=45	=45	=45	=45	=45
4C/	.	4c\	.	4e-/	.	4g\ 4ee-\	.
4GG/	.	4Bn/	.	4d/	.	4g\ 4dd\	.
4r	.	4r	.	4r	.	4r	.
=46	=46	=46	=46	=46	=46	=46	=46
4C/	.	4c\	.	4e-/	.	4g\ 4ee-\	.
4GG/	.	4Bn/	.	4d/	.	4g\ 4dd\	.
4r	.	4r	.	4r	.	4r	.
=47	=47	=47	=47	=47	=47	=47	=47
4GG/	.	4r	.	4r	.	2.r	.
4G\	.	4r	.	4r	.	.	.
4G\	.	[4f\	.	[4a-/	.	.	.
=48	=48	=48	=48	=48	=48	=48	=48
4G\	.	4f\]	.	4a-/]	.	2.r	.
4G\	.	4e-\	.	4g/	.	.	.
4G\	.	4c\	.	4e-/	.	.	.
=49	=49	=49	=49	=49	=49	=49	=49
*	*	*	*	*^	*	*	*
2.GG/	.	4.Bn/	.	4.d/	2.G\	.	4.aa-\	.
.	.	8d\L	.	8f/L	.	.	8ff\L	.
.	.	8Bn\	.	8d/	.	.	8dd\	.
.	.	8d\J	.	8f/J	.	.	8bn\J	.
*	*	*	*	*v	*v	*	*	*
=50	=50	=50	=50	=50	=50	=50	=50
*>B1	*>B1	*>B1	*>B1	*>B1	*>B1	*>B1	*>B1
4C/	.	4c\	.	4G/ 4e-/	.	4cc\	.
4r	.	4r	.	4r	.	4r	.
=51:|!	=51:|!	=51:|!	=51:|!	=51:|!	=51:|!	=51:|!	=51:|!
*>B2	*>B2	*>B2	*>B2	*>B2	*>B2	*>B2	*>B1
4C/	.	4c\	.	4G/ 4e-/	.	4cc\	.
4r	.	4r	.	4r	.	4r	.
4r	.	4r	.	4r	.	4r	.
=52!|:	=52!|:	=52!|:	=52!|:	=52!|:	=52!|:	=52!|:	=52!|:
*>C	*>C	*>C	*>C	*>C	*>C	*>C	*>C
*k[b-e-a-d-]	*k[b-e-a-d-]	*k[b-e-a-d-]	*k[b-e-a-d-]	*k[b-e-a-d-]	*k[b-e-a-d-]	*k[b-e-a-d-]	*k[b-e-a-d-]
[2.AA-/	p	[2.E-/	p	4r	.	12c/L	p
.	.	.	.	.	.	12c/	.
.	.	.	.	.	.	12c/J	.
.	.	.	.	4ee-\	p	12e-/L	.
.	.	.	.	.	.	12e-/	.
.	.	.	.	.	.	12e-/J	.
.	.	.	.	4ee-\	.	12a-/L	.
.	.	.	.	.	.	12a-/	.
.	.	.	.	.	.	12a-/J	.
=53	=53	=53	=53	=53	=53	=53	=53
2.AA-/_	.	2.E-/_	.	4.ee-\	.	12cc\L	.
.	.	.	.	.	.	12cc\	.
.	.	.	.	.	.	12cc\J	.
.	.	.	.	.	.	12a-/L	.
.	.	.	.	.	.	12a-/	.
.	.	.	.	8cc\	.	.	.
.	.	.	.	.	.	12a-/J	.
.	.	.	.	4a-/	.	12e-/L	.
.	.	.	.	.	.	12e-/	.
.	.	.	.	.	.	12e-/J	.
=54	=54	=54	=54	=54	=54	=54	=54
4AA-/]	.	4E-/]	.	4e-/	.	12c/L	.
.	.	.	.	.	.	12c/	.
.	.	.	.	.	.	12c/J	.
4E-\	.	4E-/	.	4r	.	12e-/L	.
.	.	.	.	.	.	12e-/	.
.	.	.	.	.	.	12e-/J	.
4E-\	.	4E-/	.	4r	.	12a-/L	.
.	.	.	.	.	.	12a-/	.
.	.	.	.	.	.	12a-/J	.
=55	=55	=55	=55	=55	=55	=55	=55
4.E-\	.	4.E-/	.	2.r	.	12cc\L	.
.	.	.	.	.	.	12cc\	.
.	.	.	.	.	.	12cc\J	.
.	.	.	.	.	.	12a-/L	.
.	.	.	.	.	.	12a-/	.
8C/	.	8A-/	.	.	.	.	.
.	.	.	.	.	.	12a-/J	.
4AA-/	.	4c\	.	.	.	12e-/L	.
.	.	.	.	.	.	12e-/	.
.	.	.	.	.	.	12e-/J	.
=56	=56	=56	=56	=56	=56	=56	=56
[2.GG/	.	[2.E-/ [2.B-/	.	4r	.	12d-/L	.
.	.	.	.	.	.	12d-/	.
.	.	.	.	.	.	12d-/J	.
.	.	.	.	4ee-\	.	12e-/L	.
.	.	.	.	.	.	12e-/	.
.	.	.	.	.	.	12e-/J	.
.	.	.	.	4ee-\	.	12b-\L	.
.	.	.	.	.	.	12b-\	.
.	.	.	.	.	.	12b-\J	.
=57	=57	=57	=57	=57	=57	=57	=57
2.GG/_	.	2.E-/_ 2.B-/_	.	4.ee-\	.	12dd-\L	.
.	.	.	.	.	.	12dd-\	.
.	.	.	.	.	.	12dd-\J	.
.	.	.	.	.	.	12b-\L	.
.	.	.	.	.	.	12b-\	.
.	.	.	.	8dd-\	.	.	.
.	.	.	.	.	.	12b-\J	.
.	.	.	.	4b-\	.	12e-/L	.
.	.	.	.	.	.	12e-/	.
.	.	.	.	.	.	12e-/J	.
=58	=58	=58	=58	=58	=58	=58	=58
4GG/]	.	4E-/] 4B-/]	.	4e-/	.	12d-/L	.
.	.	.	.	.	.	12d-/	.
.	.	.	.	.	.	12d-/J	.
4E-\	.	4E-/	.	4r	.	12dd-\L	.
.	.	.	.	.	.	12dd-\	.
.	.	.	.	.	.	12dd-\J	.
4E-\	.	4E-/	.	4r	.	12b-\L	.
.	.	.	.	.	.	12b-\	.
.	.	.	.	.	.	12b-\J	.
=59	=59	=59	=59	=59	=59	=59	=59
4.E-\	.	4.E-/	.	2.r	.	12g/L	.
.	.	.	.	.	.	12g/	.
.	.	.	.	.	.	12g/J	.
.	.	.	.	.	.	12e-/L	.
.	.	.	.	.	.	12e-/	.
8BB-/	.	8G/	.	.	.	.	.
.	.	.	.	.	.	12e-/J	.
4GG/	.	4B-/	.	.	.	12d-/L	.
.	.	.	.	.	.	12d-/	.
.	.	.	.	.	.	12d-/J	.
=60	=60	=60	=60	=60	=60	=60	=60
4AA-/	.	4E-/	.	4r	.	12c/L	.
.	.	.	.	.	.	12c/	.
.	.	.	.	.	.	12c/J	.
4r	.	4r	.	4ee-\	.	12e-/L	.
.	.	.	.	.	.	12e-/	.
.	.	.	.	.	.	12e-/J	.
4r	.	4r	.	4ee-\	.	12a-/L	.
.	.	.	.	.	.	12a-/	.
.	.	.	.	.	.	12a-/J	.
=61	=61	=61	=61	=61	=61	=61	=61
2.r	.	4r	.	4.ee-\	.	12cc\L	.
.	.	.	.	.	.	12cc\	.
.	.	.	.	.	.	12cc\J	.
.	.	4C/	.	.	.	12ee-\L	.
.	.	.	.	.	.	12ee-\	.
.	.	.	.	8cc\	.	.	.
.	.	.	.	.	.	12ee-\J	.
.	.	4C/	.	4a-/	.	12aa-\L	.
.	.	.	.	.	.	12aa-\	.
.	.	.	.	.	.	12aa-\J	.
=62	=62	=62	=62	=62	=62	=62	=62
4FF/	<	4.A-/	<	4r	.	12dn/L	<
.	.	.	.	.	.	12dn/	<
.	.	.	.	.	.	12dn/J	.
4r	<	.	.	4aa-\	<	12f/L	.
.	.	.	.	.	.	12f/	.
.	.	8F/	.	.	.	.	.
.	.	.	.	.	.	12f/J	.
4r	.	4Dn/	.	4aa-\	<	12a-/L	.
.	.	.	.	.	.	12a-/	.
.	.	.	.	.	.	12a-/J	.
=63	=63	=63	=63	=63	=63	=63	=63
2.r	.	4r	.	4.aa-\	.	12b-\L	.
.	.	.	.	.	.	12b-\	.
.	.	.	.	.	.	12b-\J	.
.	.	4a-\	.	.	.	12ddn\L	.
.	.	.	.	.	.	12ddn\	.
.	.	.	.	8ff\	.	.	.
.	.	.	.	.	.	12ddn\J	.
.	.	4a-\	.	4ddn\	.	12ff\L	.
.	.	.	.	.	.	12ff\	.
.	.	.	.	.	.	12ff\J	.
=64	=64	=64	=64	=64	=64	=64	=64
4DDn/	.	4.a-\	.	4r	.	12bb-\L	.
.	.	.	.	.	.	12bb-\	.
.	.	.	.	.	.	12bb-\J	.
4r	.	.	.	4aa-\	.	12dddn\L	.
.	.	.	.	.	.	12dddn\	.
.	.	8f\	.	.	.	.	.
.	.	.	.	.	.	12dddn\J	.
4r	.	4dn\	.	4aa-\	.	12fff\L	.
.	.	.	.	.	.	12fff\	.
.	.	.	.	.	.	12fff\J	.
=65	=65	=65	=65	=65	=65	=65	=65
4.Dn\	.	4.F/	.	4.aa-\	.	12fff\L	.
.	.	.	.	.	.	12fff\	.
.	.	.	.	.	.	12fff\J	.
.	.	.	.	.	.	12fff\L	.
.	.	.	.	.	.	12fff\	.
8F\	.	8B-/	.	8ff\	.	.	.
.	.	.	.	.	.	12fff\J	.
4B-\	.	4dn\	.	4ddn\	.	12fff\L	.
.	.	.	.	.	.	12fff\	.
.	.	.	.	.	.	12fff\J	.
=66	=66	=66	=66	=66	=66	=66	=66
2.dn\	.	2.f\	.	2.b-\	.	2.fff\	.
=67	=67	=67	=67	=67	=67	=67	=67
4r	.	4r	.	4r	.	8r	.
.	.	.	.	.	.	8aa-\L	p
4r	.	4r	.	4r	.	8gg\	.
.	.	.	.	.	.	8ff\	.
4A-\	p	[4B-/	p	4f/	p	8ee-\	.
.	.	.	.	.	.	8ddn\J	.
=68	=68	=68	=68	=68	=68	=68	=68
4G\	.	4B-/]	.	4e-/	.	4.ee-\	.
4r	.	4r	.	4r	.	.	.
.	.	.	.	.	.	8b-\	.
4r	.	4r	.	4r	.	4g/	.
=69	=69	=69	=69	=69	=69	=69	=69
4A-\	.	4c\	.	4e-/	.	4.cc\	.
4r	.	4r	.	4r	.	.	.
.	.	.	.	.	.	8a-/	.
4r	.	4r	.	4r	.	4f/	.
=70	=70	=70	=70	=70	=70	=70	=70
4r	.	4r	.	4r	.	2e-/	.
4B-\	.	4G/	.	4B-/	.	.	.
4BB-/	.	4A-/	.	4dn/	.	8g/L	.
.	.	.	.	.	.	8f/J	.
=71	=71	=71	=71	=71	=71	=71	=71
4E-\	.	4G/	.	4e-/	.	4e-/	.
4r	.	4r	.	4r	.	4r	.
4r	.	4r	.	4r	.	4r	.
=72:|!	=72:|!	=72:|!	=72:|!	=72:|!	=72:|!	=72:|!	=72:|!
*>D	*>D	*>D	*>D	*>D	*>D	*>D	*>D
[2.EE-/ [2.BB-/	p	[2.G/	p	4r	.	12G/L	p
.	.	.	.	.	.	12G/	.
.	.	.	.	.	.	12G/J	.
.	.	.	.	4b-\	p	12B-/L	.
.	.	.	.	.	.	12B-/	.
.	.	.	.	.	.	12B-/J	.
.	.	.	.	4b-\	.	12e-/L	.
.	.	.	.	.	.	12e-/	.
.	.	.	.	.	.	12e-/J	.
=73	=73	=73	=73	=73	=73	=73	=73
2.EE-/_ 2.BB-/_	.	2.G/_	.	4.b-\	.	12g/L	.
.	.	.	.	.	.	12g/	.
.	.	.	.	.	.	12g/J	.
.	.	.	.	.	.	12e-/L	.
.	.	.	.	.	.	12e-/	.
.	.	.	.	8g/	.	.	.
.	.	.	.	.	.	12e-/J	.
.	.	.	.	4e-/	.	12B-/L	.
.	.	.	.	.	.	12B-/	.
.	.	.	.	.	.	12B-/J	.
=74	=74	=74	=74	=74	=74	=74	=74
4EE-/] 4BB-/]	.	4G/]	.	4B-/	.	12G/L	.
.	.	.	.	.	.	12G/	.
.	.	.	.	.	.	12G/J	.
4BB-/	.	4B-/	.	4r	.	12B-/L	.
.	.	.	.	.	.	12B-/	.
.	.	.	.	.	.	12B-/J	.
4BB-/	.	4B-/	.	4r	.	12e-/L	.
.	.	.	.	.	.	12e-/	.
.	.	.	.	.	.	12e-/J	.
=75	=75	=75	=75	=75	=75	=75	=75
4.BB-/	.	4.B-/	.	2.r	.	12g/L	.
.	.	.	.	.	.	12g/	.
.	.	.	.	.	.	12g/J	.
.	.	.	.	.	.	12e-/L	.
.	.	.	.	.	.	12e-/	.
8GG/	.	8e-\	.	.	.	.	.
.	.	.	.	.	.	12e-/J	.
4EE-/	.	4g\	.	.	.	12B-/L	.
.	.	.	.	.	.	12B-/	.
.	.	.	.	.	.	12B-/J	.
=76	=76	=76	=76	=76	=76	=76	=76
[2.DDn/ [2.BB-/	.	4a-\	.	4r	.	12A-/L	.
.	.	.	.	.	.	12A-/	.
.	.	.	.	.	.	12A-/J	.
.	.	4r	.	4b-\	.	12B-/L	.
.	.	.	.	.	.	12B-/	.
.	.	.	.	.	.	12B-/J	.
.	.	4r	.	4b-\	.	12f/L	.
.	.	.	.	.	.	12f/	.
.	.	.	.	.	.	12f/J	.
=77	=77	=77	=77	=77	=77	=77	=77
2.DD/_ 2.BB-/_	.	[2.F/	.	4.b-\	.	12a-/L	.
.	.	.	.	.	.	12a-/	.
.	.	.	.	.	.	12a-/J	.
.	.	.	.	.	.	12f/L	.
.	.	.	.	.	.	12f/	.
.	.	.	.	8a-/	.	.	.
.	.	.	.	.	.	12f/J	.
.	.	.	.	4f/	.	12B-/L	.
.	.	.	.	.	.	12B-/	.
.	.	.	.	.	.	12B-/J	.
=78	=78	=78	=78	=78	=78	=78	=78
4DD/] 4BB-/]	.	4F/]	.	4B-/	.	12A-/L	.
.	.	.	.	.	.	12A-/	.
.	.	.	.	.	.	12A-/J	.
4BB-/	.	4B-/	.	4r	.	12a-/L	.
.	.	.	.	.	.	12a-/	.
.	.	.	.	.	.	12a-/J	.
4BB-/	.	4B-/	.	4r	.	12f/L	.
.	.	.	.	.	.	12f/	.
.	.	.	.	.	.	12f/J	.
=79	=79	=79	=79	=79	=79	=79	=79
4.BB-/	.	4.B-/	.	2.r	.	12dn/L	.
.	.	.	.	.	.	12dn/	.
.	.	.	.	.	.	12dn/J	.
.	.	.	.	.	.	12B-/L	.
.	.	.	.	.	.	12B-/	.
8FF/	.	8dn\	.	.	.	.	.
.	.	.	.	.	.	12B-/J	.
4DDn/	.	4f\	.	.	.	12A-/L	.
.	.	.	.	.	.	12A-/	.
.	.	.	.	.	.	12A-/J	.
=80	=80	=80	=80	=80	=80	=80	=80
4DD-/	.	4g\	.	4r	.	12G/L	<
.	.	.	.	.	.	12G/	.
.	.	.	.	.	.	12G/J	.
4r	.	4r	.	4b-\	<	12B-/L	.
.	.	.	.	.	.	12B-/	.
.	.	.	.	.	.	12B-/J	.
4r	.	4r	.	4b-\	.	12e-/L	.
.	.	.	.	.	.	12e-/	.
.	.	.	.	.	.	12e-/J	.
=81	=81	=81	=81	=81	=81	=81	=81
4r	.	4r	.	4.b-\	.	12g/L	.
.	.	.	.	.	.	12g/	.
.	.	.	.	.	.	12g/J	.
4D-\	<	4E-/	<	.	.	12b-\L	.
.	.	.	.	.	.	12b-\	.
.	.	.	.	8g/	.	.	.
.	.	.	.	.	.	12b-\J	.
4D-\	.	4E-/	.	4e-/	.	12ee-\L	.
.	.	.	.	.	.	12ee-\	.
.	.	.	.	.	.	12ee-\J	.
=82	=82	=82	=82	=82	=82	=82	=82
4C/	.	4.E-/	.	4r	.	12A-/L	.
.	.	.	.	.	.	12A-/	.
.	.	.	.	.	.	12A-/J	.
4r	.	.	.	4cc\	.	12c/L	.
.	.	.	.	.	.	12c/	.
.	.	8A-/	.	.	.	.	.
.	.	.	.	.	.	12c/J	.
4r	.	4c\	.	4cc\	.	12e-/L	.
.	.	.	.	.	.	12e-/	.
.	.	.	.	.	.	12e-/J	.
=83	=83	=83	=83	=83	=83	=83	=83
4r	.	4r	.	4.cc\	.	12a-/L	.
.	.	.	.	.	.	12a-/	.
.	.	.	.	.	.	12a-/J	.
4C/	.	4E-/	.	.	.	12cc\L	.
.	.	.	.	.	.	12cc\	.
.	.	.	.	8a-/	.	.	.
.	.	.	.	.	.	12cc\J	.
4C/	.	4E-/	.	4e-/	.	12ee-\L	.
.	.	.	.	.	.	12ee-\	.
.	.	.	.	.	.	12ee-\J	.
=84	=84	=84	=84	=84	=84	=84	=84
4GG/	.	4.E-/	.	4r	.	12B-/L	.
.	.	.	.	.	.	12B-/	.
.	.	.	.	.	.	12B-/J	.
4r	.	.	.	4dd-\	.	12e-/L	.
.	.	.	.	.	.	12e-/	.
.	.	8B-/	.	.	.	.	.
.	.	.	.	.	.	12e-/J	.
4r	.	4d-\	.	4dd-\	.	12g/L	.
.	.	.	.	.	.	12g/	.
.	.	.	.	.	.	12g/J	.
=85	=85	=85	=85	=85	=85	=85	=85
2.r	.	2.r	.	4.dd-\	.	12b-\L	.
.	.	.	.	.	.	12b-\	.
.	.	.	.	.	.	12b-\J	.
.	.	.	.	.	.	12ee-\L	.
.	.	.	.	.	.	12ee-\	.
.	.	.	.	8b-\	.	.	.
.	.	.	.	.	.	12ee-\J	.
.	.	.	.	4g/	.	12gg\L	.
.	.	.	.	.	.	12gg\	.
.	.	.	.	.	.	12gg\J	.
=86	=86	=86	=86	=86	=86	=86	=86
2.r	.	2.r	.	4.gg\	.	12bb-\L	.
.	.	.	.	.	.	12bb-\	.
.	.	.	.	.	.	12bb-\J	.
.	.	.	.	.	.	12eee-\L	.
.	.	.	.	.	.	12eee-\	.
.	.	.	.	8dd-\	.	.	.
.	.	.	.	.	.	12eee-\J	.
.	.	.	.	4b-\	.	12ggg\L	.
.	.	.	.	.	.	12ggg\	.
.	.	.	.	.	.	12ggg\J	.
=87	=87	=87	=87	=87	=87	=87	=87
4.G\	.	4.B-/	.	4.bb-\	.	12bb-\L	.
.	.	.	.	.	.	12bb-\	.
.	.	.	.	.	.	12bb-\J	.
.	.	.	.	.	.	12ddd-\L	.
.	.	.	.	.	.	12ddd-\	.
8B-\	.	8e-\	.	8gg\	.	.	.
.	.	.	.	.	.	12ddd-\J	.
4e-\	.	4g\	.	4ee-\	.	12ddd-\L	.
.	.	.	.	.	.	12ddd-\	.
.	.	.	.	.	.	12ddd-\J	.
=88	=88	=88	=88	=88	=88	=88	=88
2.g\	.	2.b-\	.	2.ee-\	.	2.ddd-\	.
=89	=89	=89	=89	=89	=89	=89	=89
4r	.	4r	.	4r	.	8r	.
.	.	.	.	.	.	8dddd-\L	p
4r	.	4r	.	4r	.	8cccc\	.
.	.	.	.	.	.	8bbb-\	.
4d-\	p	[4e-\	p	4b-\	p	8aaa-\	.
.	.	.	.	.	.	8ggg\J	.
=90	=90	=90	=90	=90	=90	=90	=90
4c\	.	4e-\]	.	4a-/	.	4.aaa-\	.
4r	.	4r	.	4r	.	.	.
.	.	.	.	.	.	8eee-\	.
4r	.	4r	.	4r	.	4ccc\	.
=91	=91	=91	=91	=91	=91	=91	=91
4d-\	.	4f\	.	4a-/	.	4.fff\	.
4r	.	4r	.	4r	.	.	.
.	.	.	.	.	.	8ddd-\	.
4r	.	4r	.	4r	.	4bb-\	.
=92	=92	=92	=92	=92	=92	=92	=92
4r	.	4r	.	4r	.	2aa-/	.
4E-\	.	4c\	.	4e-/	.	.	.
4E-\	.	4d-\	.	4g/	.	8ccc\L	.
.	.	.	.	.	.	8bb-\J	.
=93	=93	=93	=93	=93	=93	=93	=93
4A-\	.	4c\	.	4a-/	.	4aa-/	.
4r	.	4r	.	4r	.	4r	.
4r	.	4r	.	4r	.	4r	.
=94	=94	=94	=94	=94	=94	=94	=94
4r	.	4r	.	4r	.	2a-/	>
4EE-/	>	4C/	>	4A-/	>	.	.
4EEn/	.	4D-/	.	4G/	.	8cc/L	.
.	.	.	.	.	.	8b-/J	.
=95	=95	=95	=95	=95	=95	=95	=95
4FF/	.	4C/	.	4A-/	.	4a-/	.
4r	.	4r	.	4r	.	4r	.
4r	.	4r	.	4r	.	4r	.
=96	=96	=96	=96	=96	=96	=96	=96
4F\	pp	4A-/	pp	4dn/	pp	4ff/	pp
4r	.	4r	.	4r	.	4r	.
4r	.	4r	.	4r	.	4r	.
=97	=97	=97	=97	=97	=97	=97	=97
4F#\	.	4An/	.	4c/	.	4ee-/	.
4r	.	4r	.	4r	.	4r	.
4r	.	4r	.	4r	.	4r	.
=98	=98	=98	=98	=98	=98	=98	=98
4G\	.	4Bn/	.	4Bn/	.	4ddn/	.
4r	.	4r	.	4r	.	4r	.
4r	.	4r	.	4r	.	4r	.
=99	=99	=99	=99	=99	=99	=99	=99
4r	.	4r	.	4r	.	4r	.
4r	.	4r	.	4r	.	4r	.
==	==	==	==	==	==	==	==
*-	*-	*-	*-	*-	*-	*-	*-
!!!ENC: Craig Stuart Sapp
!!!END: 2006/02/01/
